packages/chisel-site/assets/logo.svg

<svg width="386" height="185" viewBox="0 0 386 185" fill="none" xmlns="http://www.w3.org/2000/svg">
<path d="M0 84H386V185H0V84Z" fill="#325476"/>
<path d="M17.096 140.2C17.096 136.12 17.912 132.568 19.544 129.544C21.176 126.472 23.432 124.096 26.312 122.416C29.24 120.736 32.576 119.896 36.32 119.896C41.168 119.896 45.152 121.072 48.272 123.424C51.44 125.776 53.528 129.04 54.536 133.216H47.48C46.808 130.816 45.488 128.92 43.52 127.528C41.6 126.136 39.2 125.44 36.32 125.44C32.576 125.44 29.552 126.736 27.248 129.328C24.944 131.872 23.792 135.496 23.792 140.2C23.792 144.952 24.944 148.624 27.248 151.216C29.552 153.808 32.576 155.104 36.32 155.104C39.2 155.104 41.6 154.432 43.52 153.088C45.44 151.744 46.76 149.824 47.48 147.328H54.536C53.48 151.36 51.368 154.6 48.2 157.048C45.032 159.448 41.072 160.648 36.32 160.648C32.576 160.648 29.24 159.808 26.312 158.128C23.432 156.448 21.176 154.072 19.544 151C17.912 147.928 17.096 144.328 17.096 140.2ZM82.8624 119.824C85.8384 119.824 88.5264 120.472 90.9264 121.768C93.3264 123.016 95.1984 124.912 96.5424 127.456C97.9344 130 98.6304 133.096 98.6304 136.744V160H92.1504V137.68C92.1504 133.744 91.1664 130.744 89.1984 128.68C87.2304 126.568 84.5424 125.512 81.1344 125.512C77.6784 125.512 74.9184 126.592 72.8544 128.752C70.8384 130.912 69.8304 134.056 69.8304 138.184V160H63.2784V106.72H69.8304V126.16C71.1264 124.144 72.9024 122.584 75.1584 121.48C77.4624 120.376 80.0304 119.824 82.8624 119.824ZM112.717 114.136C111.469 114.136 110.413 113.704 109.549 112.84C108.685 111.976 108.253 110.92 108.253 109.672C108.253 108.424 108.685 107.368 109.549 106.504C110.413 105.64 111.469 105.208 112.717 105.208C113.917 105.208 114.925 105.64 115.741 106.504C116.605 107.368 117.037 108.424 117.037 109.672C117.037 110.92 116.605 111.976 115.741 112.84C114.925 113.704 113.917 114.136 112.717 114.136ZM115.885 120.544V160H109.333V120.544H115.885ZM141.02 160.648C137.996 160.648 135.284 160.144 132.884 159.136C130.484 158.08 128.588 156.64 127.196 154.816C125.804 152.944 125.036 150.808 124.892 148.408H131.66C131.852 150.376 132.764 151.984 134.396 153.232C136.076 154.48 138.26 155.104 140.948 155.104C143.444 155.104 145.412 154.552 146.852 153.448C148.292 152.344 149.012 150.952 149.012 149.272C149.012 147.544 148.244 146.272 146.708 145.456C145.172 144.592 142.796 143.752 139.58 142.936C136.652 142.168 134.252 141.4 132.38 140.632C130.556 139.816 128.972 138.64 127.628 137.104C126.332 135.52 125.684 133.456 125.684 130.912C125.684 128.896 126.284 127.048 127.484 125.368C128.684 123.688 130.388 122.368 132.596 121.408C134.804 120.4 137.324 119.896 140.156 119.896C144.524 119.896 148.052 121 150.74 123.208C153.428 125.416 154.868 128.44 155.06 132.28H148.508C148.364 130.216 147.524 128.56 145.988 127.312C144.5 126.064 142.484 125.44 139.94 125.44C137.588 125.44 135.716 125.944 134.324 126.952C132.932 127.96 132.236 129.28 132.236 130.912C132.236 132.208 132.644 133.288 133.46 134.152C134.324 134.968 135.38 135.64 136.628 136.168C137.924 136.648 139.7 137.2 141.956 137.824C144.788 138.592 147.092 139.36 148.868 140.128C150.644 140.848 152.156 141.952 153.404 143.44C154.7 144.928 155.372 146.872 155.42 149.272C155.42 151.432 154.82 153.376 153.62 155.104C152.42 156.832 150.716 158.2 148.508 159.208C146.348 160.168 143.852 160.648 141.02 160.648ZM200.669 138.76C200.669 140.008 200.597 141.328 200.453 142.72H168.917C169.157 146.608 170.477 149.656 172.877 151.864C175.325 154.024 178.277 155.104 181.733 155.104C184.565 155.104 186.917 154.456 188.789 153.16C190.709 151.816 192.053 150.04 192.821 147.832H199.877C198.821 151.624 196.709 154.72 193.541 157.12C190.373 159.472 186.437 160.648 181.733 160.648C177.989 160.648 174.629 159.808 171.653 158.128C168.725 156.448 166.421 154.072 164.741 151C163.061 147.88 162.221 144.28 162.221 140.2C162.221 136.12 163.037 132.544 164.669 129.472C166.301 126.4 168.581 124.048 171.509 122.416C174.485 120.736 177.893 119.896 181.733 119.896C185.477 119.896 188.789 120.712 191.669 122.344C194.549 123.976 196.757 126.232 198.293 129.112C199.877 131.944 200.669 135.16 200.669 138.76ZM193.901 137.392C193.901 134.896 193.349 132.76 192.245 130.984C191.141 129.16 189.629 127.792 187.709 126.88C185.837 125.92 183.749 125.44 181.445 125.44C178.133 125.44 175.301 126.496 172.949 128.608C170.645 130.72 169.325 133.648 168.989 137.392H193.901ZM215.869 106.72V160H209.317V106.72H215.869Z" fill="#F9FAFB"/>
<rect x="237.5" y="86.5" width="146" height="96" fill="#F9FAFB" stroke="#325476" stroke-width="5"/>
<path d="M254.096 140.2C254.096 136.12 254.912 132.568 256.544 129.544C258.176 126.472 260.432 124.096 263.312 122.416C266.24 120.736 269.576 119.896 273.32 119.896C278.168 119.896 282.152 121.072 285.272 123.424C288.44 125.776 290.528 129.04 291.536 133.216H284.48C283.808 130.816 282.488 128.92 280.52 127.528C278.6 126.136 276.2 125.44 273.32 125.44C269.576 125.44 266.552 126.736 264.248 129.328C261.944 131.872 260.792 135.496 260.792 140.2C260.792 144.952 261.944 148.624 264.248 151.216C266.552 153.808 269.576 155.104 273.32 155.104C276.2 155.104 278.6 154.432 280.52 153.088C282.44 151.744 283.76 149.824 284.48 147.328H291.536C290.48 151.36 288.368 154.6 285.2 157.048C282.032 159.448 278.072 160.648 273.32 160.648C269.576 160.648 266.24 159.808 263.312 158.128C260.432 156.448 258.176 154.072 256.544 151C254.912 147.928 254.096 144.328 254.096 140.2ZM314.246 160.648C311.222 160.648 308.51 160.144 306.11 159.136C303.71 158.08 301.814 156.64 300.422 154.816C299.03 152.944 298.262 150.808 298.118 148.408H304.886C305.078 150.376 305.99 151.984 307.622 153.232C309.302 154.48 311.486 155.104 314.174 155.104C316.67 155.104 318.638 154.552 320.078 153.448C321.518 152.344 322.238 150.952 322.238 149.272C322.238 147.544 321.47 146.272 319.934 145.456C318.398 144.592 316.022 143.752 312.806 142.936C309.878 142.168 307.478 141.4 305.606 140.632C303.782 139.816 302.198 138.64 300.854 137.104C299.558 135.52 298.91 133.456 298.91 130.912C298.91 128.896 299.51 127.048 300.71 125.368C301.91 123.688 303.614 122.368 305.822 121.408C308.03 120.4 310.55 119.896 313.382 119.896C317.75 119.896 321.278 121 323.966 123.208C326.654 125.416 328.094 128.44 328.286 132.28H321.734C321.59 130.216 320.75 128.56 319.214 127.312C317.726 126.064 315.71 125.44 313.166 125.44C310.814 125.44 308.942 125.944 307.55 126.952C306.158 127.96 305.462 129.28 305.462 130.912C305.462 132.208 305.87 133.288 306.686 134.152C307.55 134.968 308.606 135.64 309.854 136.168C311.15 136.648 312.926 137.2 315.182 137.824C318.014 138.592 320.318 139.36 322.094 140.128C323.87 140.848 325.382 141.952 326.63 143.44C327.926 144.928 328.598 146.872 328.646 149.272C328.646 151.432 328.046 153.376 326.846 155.104C325.646 156.832 323.942 158.2 321.734 159.208C319.574 160.168 317.078 160.648 314.246 160.648ZM351.864 160.648C348.84 160.648 346.128 160.144 343.728 159.136C341.328 158.08 339.432 156.64 338.04 154.816C336.648 152.944 335.88 150.808 335.736 148.408H342.504C342.696 150.376 343.608 151.984 345.24 153.232C346.92 154.48 349.104 155.104 351.792 155.104C354.288 155.104 356.256 154.552 357.696 153.448C359.136 152.344 359.856 150.952 359.856 149.272C359.856 147.544 359.088 146.272 357.552 145.456C356.016 144.592 353.64 143.752 350.424 142.936C347.496 142.168 345.096 141.4 343.224 140.632C341.4 139.816 339.816 138.64 338.472 137.104C337.176 135.52 336.528 133.456 336.528 130.912C336.528 128.896 337.128 127.048 338.328 125.368C339.528 123.688 341.232 122.368 343.44 121.408C345.648 120.4 348.168 119.896 351 119.896C355.368 119.896 358.896 121 361.584 123.208C364.272 125.416 365.712 128.44 365.904 132.28H359.352C359.208 130.216 358.368 128.56 356.832 127.312C355.344 126.064 353.328 125.44 350.784 125.44C348.432 125.44 346.56 125.944 345.168 126.952C343.776 127.96 343.08 129.28 343.08 130.912C343.08 132.208 343.488 133.288 344.304 134.152C345.168 134.968 346.224 135.64 347.472 136.168C348.768 136.648 350.544 137.2 352.8 137.824C355.632 138.592 357.936 139.36 359.712 140.128C361.488 140.848 363 141.952 364.248 143.44C365.544 144.928 366.216 146.872 366.264 149.272C366.264 151.432 365.664 153.376 364.464 155.104C363.264 156.832 361.56 158.2 359.352 159.208C357.192 160.168 354.696 160.648 351.864 160.648Z" fill="#325476"/>
<path d="M108.045 100.534C107.468 100.534 107 100.067 107 99.4884V80.4956C107 79.9198 107.468 79.4503 108.045 79.4503H136.596C136.652 79.393 136.717 79.3256 136.782 79.2564C138.42 77.5554 143.399 72.3735 142.488 66.3302C141.81 61.8482 138.054 57.6891 131.323 53.9684C123.11 49.4268 116.991 48.465 113.618 51.1964C110.336 53.8545 110.196 59.6741 111.136 62.7712C111.929 65.3827 113.219 66.971 114.971 67.4954C119.125 68.7478 124.831 64.0594 124.885 64.0122C125.326 63.6405 125.985 63.7002 126.357 64.1453C126.727 64.5862 126.667 65.2461 126.226 65.6154C125.958 65.838 119.622 71.0526 114.375 69.4989C111.907 68.7603 110.145 66.7019 109.135 63.3774C107.998 59.6251 108.226 52.8646 112.302 49.5688C116.442 46.2163 123.185 47.079 132.334 52.1397C139.662 56.1903 143.776 60.862 144.555 66.0199C145.622 73.0806 140.102 78.8196 138.29 80.7044C138.093 80.9109 137.942 81.0654 137.859 81.1656C137.66 81.4019 137.368 81.5409 137.055 81.5409H109.091V99.4884C109.091 100.067 108.625 100.534 108.045 100.534Z" fill="#325476"/>
<path d="M173.383 52.5317L177.042 45.5659L184.098 52.5317L176.519 55.4063L143.646 85.4614V80.4956L173.383 52.5317Z" fill="#325476"/>
<path d="M142.601 87.8342V80.0445L172.541 51.8903L176.773 43.8303L185.991 52.9338L177.075 56.3132L142.601 87.8342ZM144.692 80.949V83.0892L176.15 54.4284L182.208 52.1302L177.312 47.298L174.102 53.2906L144.692 80.949Z" fill="#325476"/>
<path d="M178.61 42.0774L187.758 51.4864L193.768 46.7819L184.098 36.0663L178.61 42.0774Z" fill="#325476"/>
<path d="M187.661 52.8909L177.172 42.1012L184.1 34.512L195.295 46.9173L187.661 52.8909ZM180.048 42.0547L187.855 50.0831L192.241 46.6488L184.097 37.6223L180.048 42.0547Z" fill="#325476"/>
<path d="M186.19 33.453L196.643 45.5659L213.108 29.5325L231.664 14.6356L233.755 10.193L225.392 1.04531H220.426L202.654 19.6014L186.19 33.453Z" fill="#325476"/>
<path d="M196.578 47.088L184.706 33.3342L201.98 18.8007L219.978 0H225.853L235 10.005L232.509 15.2996L213.765 30.3463L196.578 47.088ZM187.672 33.5705L196.708 44.0421L212.379 28.7825L230.818 13.9709L232.511 10.3791L224.93 2.08824H220.875L203.41 20.3233L187.672 33.5705Z" fill="#325476"/>
<rect y="79.5" width="143" height="6.5" fill="#325476"/>
</svg>

<svg xmlns="http://www.w3.org/2000/svg" width="386" height="185" fill="none" xmlns:v="https://vecta.io/nano"><path d="M0 84H235V185H0V84Z" fill="#325476"/><path d="M17.096 140.2c0-4.08.816-7.632 2.448-10.656 1.632-3.072 3.888-5.448 6.768-7.128 2.928-1.68 6.264-2.52 10.008-2.52 4.848 0 8.832 1.176 11.952 3.528 3.168 2.352 5.256 5.616 6.264 9.792H47.48c-.672-2.4-1.992-4.296-3.96-5.688-1.92-1.392-4.32-2.088-7.2-2.088-3.744 0-6.768 1.296-9.072 3.888-2.304 2.544-3.456 6.168-3.456 10.872 0 4.752 1.152 8.424 3.456 11.016s5.328 3.888 9.072 3.888c2.88 0 5.28-.672 7.2-2.016s3.24-3.264 3.96-5.76h7.056c-1.056 4.032-3.168 7.272-6.336 9.72-3.168 2.4-7.128 3.6-11.88 3.6-3.744 0-7.08-.84-10.008-2.52-2.88-1.68-5.136-4.056-6.768-7.128s-2.448-6.672-2.448-10.8zm65.766-20.376c2.976 0 5.664.648 8.064 1.944 2.4 1.248 4.272 3.144 5.616 5.688 1.392 2.544 2.088 5.64 2.088 9.288V160h-6.48v-22.32c0-3.936-.984-6.936-2.952-9-1.968-2.112-4.656-3.168-8.064-3.168-3.456 0-6.216 1.08-8.28 3.24-2.016 2.16-3.024 5.304-3.024 9.432V160h-6.552v-53.28h6.552v19.44c1.296-2.016 3.072-3.576 5.328-4.68 2.304-1.104 4.872-1.656 7.704-1.656zm29.855-5.688c-1.248 0-2.304-.432-3.168-1.296s-1.296-1.92-1.296-3.168.432-2.304 1.296-3.168 1.92-1.296 3.168-1.296a3.99 3.99 0 0 1 3.024 1.296c.864.864 1.296 1.92 1.296 3.168s-.432 2.304-1.296 3.168a3.99 3.99 0 0 1-3.024 1.296zm3.168 6.408V160h-6.552v-39.456h6.552zm25.135 40.104c-3.024 0-5.736-.504-8.136-1.512-2.4-1.056-4.296-2.496-5.688-4.32-1.392-1.872-2.16-4.008-2.304-6.408h6.768c.192 1.968 1.104 3.576 2.736 4.824 1.68 1.248 3.864 1.872 6.552 1.872 2.496 0 4.464-.552 5.904-1.656s2.16-2.496 2.16-4.176c0-1.728-.768-3-2.304-3.816-1.536-.864-3.912-1.704-7.128-2.52-2.928-.768-5.328-1.536-7.2-2.304-1.824-.816-3.408-1.992-4.752-3.528-1.296-1.584-1.944-3.648-1.944-6.192 0-2.016.6-3.864 1.8-5.544s2.904-3 5.112-3.96c2.208-1.008 4.728-1.512 7.56-1.512 4.368 0 7.896 1.104 10.584 3.312s4.128 5.232 4.32 9.072h-6.552c-.144-2.064-.984-3.72-2.52-4.968-1.488-1.248-3.504-1.872-6.048-1.872-2.352 0-4.224.504-5.616 1.512s-2.088 2.328-2.088 3.96c0 1.296.408 2.376 1.224 3.24.864.816 1.92 1.488 3.168 2.016 1.296.48 3.072 1.032 5.328 1.656 2.832.768 5.136 1.536 6.912 2.304a11.46 11.46 0 0 1 4.536 3.312c1.296 1.488 1.968 3.432 2.016 5.832 0 2.16-.6 4.104-1.8 5.832s-2.904 3.096-5.112 4.104c-2.16.96-4.656 1.44-7.488 1.44zm59.649-21.888a38.56 38.56 0 0 1-.216 3.96h-31.536c.24 3.888 1.56 6.936 3.96 9.144 2.448 2.16 5.4 3.24 8.856 3.24 2.832 0 5.184-.648 7.056-1.944a10.6 10.6 0 0 0 4.032-5.328h7.056a17.13 17.13 0 0 1-6.336 9.288c-3.168 2.352-7.104 3.528-11.808 3.528-3.744 0-7.104-.84-10.08-2.52-2.928-1.68-5.232-4.056-6.912-7.128-1.68-3.12-2.52-6.72-2.52-10.8s.816-7.656 2.448-10.728 3.912-5.424 6.84-7.056c2.976-1.68 6.384-2.52 10.224-2.52 3.744 0 7.056.816 9.936 2.448s5.088 3.888 6.624 6.768c1.584 2.832 2.376 6.048 2.376 9.648zm-6.768-1.368c0-2.496-.552-4.632-1.656-6.408a10.42 10.42 0 0 0-4.536-4.104c-1.872-.96-3.96-1.44-6.264-1.44-3.312 0-6.144 1.056-8.496 3.168-2.304 2.112-3.624 5.04-3.96 8.784h24.912zm21.968-30.672V160h-6.552v-53.28h6.552z" fill="#fff"/><path stroke="#325476" stroke-width="5" d="M237.5 86.5h146v96h-146z"/><g fill="#325476"><path d="M254.096 140.2c0-4.08.816-7.632 2.448-10.656 1.632-3.072 3.888-5.448 6.768-7.128 2.928-1.68 6.264-2.52 10.008-2.52 4.848 0 8.832 1.176 11.952 3.528 3.168 2.352 5.256 5.616 6.264 9.792h-7.056c-.672-2.4-1.992-4.296-3.96-5.688-1.92-1.392-4.32-2.088-7.2-2.088-3.744 0-6.768 1.296-9.072 3.888-2.304 2.544-3.456 6.168-3.456 10.872 0 4.752 1.152 8.424 3.456 11.016s5.328 3.888 9.072 3.888c2.88 0 5.28-.672 7.2-2.016s3.24-3.264 3.96-5.76h7.056c-1.056 4.032-3.168 7.272-6.336 9.72-3.168 2.4-7.128 3.6-11.88 3.6-3.744 0-7.08-.84-10.008-2.52-2.88-1.68-5.136-4.056-6.768-7.128s-2.448-6.672-2.448-10.8zm60.15 20.448c-3.024 0-5.736-.504-8.136-1.512-2.4-1.056-4.296-2.496-5.688-4.32-1.392-1.872-2.16-4.008-2.304-6.408h6.768c.192 1.968 1.104 3.576 2.736 4.824 1.68 1.248 3.864 1.872 6.552 1.872 2.496 0 4.464-.552 5.904-1.656s2.16-2.496 2.16-4.176c0-1.728-.768-3-2.304-3.816-1.536-.864-3.912-1.704-7.128-2.52-2.928-.768-5.328-1.536-7.2-2.304-1.824-.816-3.408-1.992-4.752-3.528-1.296-1.584-1.944-3.648-1.944-6.192 0-2.016.6-3.864 1.8-5.544s2.904-3 5.112-3.96c2.208-1.008 4.728-1.512 7.56-1.512 4.368 0 7.896 1.104 10.584 3.312s4.128 5.232 4.32 9.072h-6.552c-.144-2.064-.984-3.72-2.52-4.968-1.488-1.248-3.504-1.872-6.048-1.872-2.352 0-4.224.504-5.616 1.512s-2.088 2.328-2.088 3.96c0 1.296.408 2.376 1.224 3.24.864.816 1.92 1.488 3.168 2.016 1.296.48 3.072 1.032 5.328 1.656 2.832.768 5.136 1.536 6.912 2.304a11.46 11.46 0 0 1 4.536 3.312c1.296 1.488 1.968 3.432 2.016 5.832 0 2.16-.6 4.104-1.8 5.832s-2.904 3.096-5.112 4.104c-2.16.96-4.656 1.44-7.488 1.44zm37.618 0c-3.024 0-5.736-.504-8.136-1.512-2.4-1.056-4.296-2.496-5.688-4.32-1.392-1.872-2.16-4.008-2.304-6.408h6.768c.192 1.968 1.104 3.576 2.736 4.824 1.68 1.248 3.864 1.872 6.552 1.872 2.496 0 4.464-.552 5.904-1.656s2.16-2.496 2.16-4.176c0-1.728-.768-3-2.304-3.816-1.536-.864-3.912-1.704-7.128-2.52-2.928-.768-5.328-1.536-7.2-2.304-1.824-.816-3.408-1.992-4.752-3.528-1.296-1.584-1.944-3.648-1.944-6.192 0-2.016.6-3.864 1.8-5.544s2.904-3 5.112-3.96c2.208-1.008 4.728-1.512 7.56-1.512 4.368 0 7.896 1.104 10.584 3.312s4.128 5.232 4.32 9.072h-6.552c-.144-2.064-.984-3.72-2.52-4.968-1.488-1.248-3.504-1.872-6.048-1.872-2.352 0-4.224.504-5.616 1.512s-2.088 2.328-2.088 3.96c0 1.296.408 2.376 1.224 3.24.864.816 1.92 1.488 3.168 2.016 1.296.48 3.072 1.032 5.328 1.656 2.832.768 5.136 1.536 6.912 2.304a11.46 11.46 0 0 1 4.536 3.312c1.296 1.488 1.968 3.432 2.016 5.832 0 2.16-.6 4.104-1.8 5.832s-2.904 3.096-5.112 4.104c-2.16.96-4.656 1.44-7.488 1.44zm-243.819-60.114c-.577 0-1.045-.467-1.045-1.046V80.496c0-.576.468-1.045 1.045-1.045h28.551l.186-.194c1.638-1.701 6.617-6.883 5.706-12.926-.678-4.482-4.434-8.641-11.165-12.362-8.213-4.542-14.332-5.503-17.705-2.772-3.282 2.658-3.422 8.478-2.482 11.575.793 2.611 2.083 4.2 3.835 4.724 4.154 1.252 9.86-3.436 9.914-3.483.441-.372 1.1-.312 1.472.133a1.04 1.04 0 0 1-.131 1.47c-.268.223-6.604 5.437-11.851 3.884-2.468-.739-4.23-2.797-5.24-6.122-1.137-3.752-.909-10.513 3.167-13.809 4.14-3.353 10.883-2.49 20.032 2.571 7.328 4.051 11.442 8.722 12.221 13.88 1.067 7.061-4.453 12.8-6.265 14.685-.197.206-.348.361-.431.461a1.05 1.05 0 0 1-.804.375h-27.964v17.948c0 .579-.466 1.046-1.046 1.046zm65.338-48.002l3.659-6.966 7.056 6.966-7.579 2.875-32.873 30.055v-4.966l29.737-27.964z"/><path d="M142.601 87.834v-7.79l29.94-28.154 4.232-8.06 9.218 9.103-8.916 3.379-34.474 31.521zm2.091-6.885v2.14l31.458-28.661 6.058-2.298-4.896-4.832-3.21 5.993-29.41 27.658zm33.918-38.872l9.148 9.409 6.01-4.705-9.67-10.716-5.488 6.011z"/><path d="M187.661 52.891l-10.489-10.79 6.928-7.589 11.195 12.405-7.634 5.974zm-7.613-10.836l7.807 8.028 4.386-3.434-8.144-9.026-4.049 4.432zm6.142-8.602l10.453 12.113 16.465-16.033 18.556-14.897 2.091-4.443-8.363-9.148h-4.966l-17.772 18.556-16.464 13.852z"/><path d="M196.578 47.088l-11.872-13.754L201.98 18.8 219.978 0h5.875L235 10.005l-2.491 5.295-18.744 15.047-17.187 16.742zm-8.906-13.517l9.036 10.472 15.671-15.26 18.439-14.812 1.693-3.592-7.581-8.291h-4.055L203.41 20.323 187.672 33.57zM0 79.5h143V86H0z"/></g></svg>
